svg/file_restore_outline.svg

<svg xmlns="http://www.w3.org/2000/svg" viewBox="0 0 24 24"><path d="M14 2H6c-1.1 0-2 .9-2 2v16c0 1.1.9 2 2 2h12c1.1 0 2-.9 2-2V8zm4 18H6V4h7l5 5zm-1-6.76c0 2.62-2.13 4.76-4.76 4.76-1.95 0-3.63-1.18-4.36-2.86H9.5c.61.86 1.61 1.43 2.74 1.43 1.84 0 3.33-1.5 3.33-3.33S14.08 9.9 12.24 9.9c-1.29 0-2.38.75-2.95 1.81l1.52 1.53H7V9.43l1.24 1.24a4.71 4.71 0 0 1 4-2.17c2.63-.03 4.76 2.11 4.76 4.74"/></svg>

<?xml version="1.0" encoding="UTF-8"?><!DOCTYPE svg PUBLIC "-//W3C//DTD SVG 1.1//EN" "http://www.w3.org/Graphics/SVG/1.1/DTD/svg11.dtd"><svg xmlns="http://www.w3.org/2000/svg" xmlns:xlink="http://www.w3.org/1999/xlink" version="1.1" id="mdi-file-restore-outline" width="24" height="24" viewBox="0 0 24 24"><path d="M14 2H6C4.9 2 4 2.9 4 4V20C4 21.1 4.9 22 6 22H18C19.1 22 20 21.1 20 20V8L14 2M18 20H6V4H13L18 9V20M17 13.24C17 15.86 14.87 18 12.24 18C10.29 18 8.61 16.82 7.88 15.14H9.5C10.11 16 11.11 16.57 12.24 16.57C14.08 16.57 15.57 15.07 15.57 13.24S14.08 9.9 12.24 9.9C10.95 9.9 9.86 10.65 9.29 11.71L10.81 13.24H7V9.43L8.24 10.67C9.09 9.35 10.55 8.5 12.24 8.5C14.87 8.47 17 10.61 17 13.24Z" /></svg>
